src/actions/24/gnumeric-row-delete.svg

<svg xmlns="http://www.w3.org/2000/svg" viewBox="0 0 24 24">
    <path d="M4 4v16h16V4H4zm1 1h4v2H5V5zm5 0h4v2h-4V5zm5 0h4v2h-4V5zM5 8h4v1h1V8h4v1h1V8h4v8h-4v-1h-1v1h-4v-1H9v1H5V8zm0 9h4v2H5v-2zm5 0h4v2h-4v-2zm5 0h4v2h-4v-2z" style="fill:currentColor;fill-opacity:1;stroke:none;color:#050505;opacity:.7"/>
    <path d="M5 9v1h.293l4 4H5v1h14v-1h-.293l-4-4H19V9H5zm1.707 1h2.586l4 4h-2.586l-4-4zm4 0h2.586l4 4h-2.586l-4-4z" style="fill:#d98c8c"/>
</svg>

<svg xmlns="http://www.w3.org/2000/svg" viewBox="0 0 24 24">
  <defs id="defs3051">
    <style type="text/css" id="current-color-scheme">
      .ColorScheme-Text {
        color:#363636;
      }
      </style>
  </defs>
 <path style="fill:currentColor;fill-opacity:1;stroke:none" 
     d="M 4 4 L 4 19 L 4 20 L 20 20 L 20 19 L 20 4 L 19 4 L 5 4 L 4 4 z M 5 5 L 9 5 L 9 7 L 5 7 L 5 5 z M 10 5 L 14 5 L 14 7 L 10 7 L 10 5 z M 15 5 L 19 5 L 19 7 L 16 7 L 15 7 L 15 5.9003906 L 15 5 z M 5 8 L 9 8 L 9 9 L 10 9 L 10 8 L 14 8 L 14 9 L 15 9 L 15 8 L 16 8 L 19 8 L 19 9 L 19 10 L 19 11 L 19 13 L 19 14 L 19 15 L 19 16 L 16 16 L 15 16 L 15 15 L 14 15 L 14 16 L 10 16 L 10 15 L 9 15 L 9 16 L 5 16 L 5 15 L 5 14 L 5 13 L 5 11 L 5 10 L 5 9 L 5 8 z M 5 17 L 8 17 L 9 17 L 9 18 L 9 19 L 5 19 L 5 17 z M 10 17 L 14 17 L 14 18 L 14 19 L 10 19 L 10 18 L 10 17 z M 15 17 L 16 17 L 19 17 L 19 19 L 15 19 L 15 18 L 15 17 z "
     class="ColorScheme-Text"
     />
 <path 
     style="fill:#da4453" 
     d="M 5 9 L 5 10 L 5.2929688 10 L 9.2929688 14 L 5 14 L 5 15 L 10.292969 15 L 14.292969 15 L 18.292969 15 L 19 15 L 19 14.292969 L 19 14 L 18.707031 14 L 14.707031 10 L 19 10 L 19 9 L 5 9 z M 6.7070312 10 L 9.2929688 10 L 13.292969 14 L 10.707031 14 L 6.7070312 10 z M 10.707031 10 L 13.292969 10 L 17.292969 14 L 14.707031 14 L 10.707031 10 z "
     />
</svg>
